lib/icons/svg/quiz-option-b.svg

<svg xmlns="http://www.w3.org/2000/svg" width="48" height="48" viewBox="0 0 48 48">
  <path d="M24,0A23.5707,23.5707,0,0,1,48,24,23.5707,23.5707,0,0,1,24,48,23.5707,23.5707,0,0,1,0,24,23.5707,23.5707,0,0,1,24,0Zm0,43.7333A19.3585,19.3585,0,0,0,43.7333,24,19.3585,19.3585,0,0,0,24,4.2667c-11.4667,0-19.4667,8.8-19.4667,19.7333S12.5333,43.7333,24,43.7333ZM28.5333,23.2a4.4391,4.4391,0,0,0,2.9334-4.5333c0-3.4667-2.6667-5.3334-7.2-5.3334H16.8v20.8H24c5.0667,0,8.2667-1.8666,8.2667-6.1333A4.6719,4.6719,0,0,0,28.5333,23.2Zm-5.0666-1.3333H21.3333V16.8h2.4q3.2,0,3.2,2.4C26.9333,20.8,25.8667,21.8667,23.4667,21.8667ZM23.7333,30.4H21.0667V24.8h2.4c2.4,0,4,1.0666,4,2.9333C27.7333,29.6,26.4,30.4,23.7333,30.4Z"/>
</svg>

<svg xmlns="http://www.w3.org/2000/svg" width="48" height="48"><path d="M24 0a23.57 23.57 0 0 1 24 24 23.57 23.57 0 0 1-24 24A23.57 23.57 0 0 1 0 24 23.57 23.57 0 0 1 24 0Zm0 43.733A19.358 19.358 0 0 0 43.733 24 19.358 19.358 0 0 0 24 4.267c-11.467 0-19.467 8.8-19.467 19.733s8 19.733 19.467 19.733ZM28.533 23.2a4.44 4.44 0 0 0 2.934-4.533c0-3.467-2.667-5.334-7.2-5.334H16.8v20.8H24c5.067 0 8.267-1.866 8.267-6.133a4.672 4.672 0 0 0-3.734-4.8Zm-5.066-1.333h-2.134V16.8h2.4q3.2 0 3.2 2.4c0 1.6-1.066 2.667-3.466 2.667Zm.266 8.533h-2.666v-5.6h2.4c2.4 0 4 1.067 4 2.933.266 1.867-1.067 2.667-3.734 2.667Z"/></svg>
